core/flat/computer-devices/google-drive.svg

<svg xmlns="http://www.w3.org/2000/svg" fill="none" viewBox="0 0 14 14" id="Google-Drive--Streamline-Core">
  <desc>
    Google Drive Streamline Icon: https://streamlinehq.com
  </desc>
  <g id="google-drive">
    <path id="Subtract" fill="#8fbffa" fill-rule="evenodd" d="M0.110107 9.10972 2.5903 13.078h8.9287l2.4802 -3.96828L9.53485 1.1731H4.57446L0.110107 9.10972Zm5.481143 -0.45423 1.31333 -2.33481 1.45926 2.33481H5.59125Z" clip-rule="evenodd" stroke-width="1"></path>
    <path id="Intersect" fill="#2859c5" fill-rule="evenodd" d="M1.95459 12.061 3.6334 9.0764c0.01264 -0.02585 0.02673 -0.05087 0.04216 -0.07495L5.99871 4.8714 4.15419 1.92017l0.42023 -0.74707h0.88172l2.01422 3.22275c0.02678 0.03543 0.0502 0.07299 0.07011 0.11217L10.1326 8.6555h3.6111l0.2555 0.45422 -0.6537 1.04578H4.74743L3.10351 13.078h-0.51325l-0.63567 -1.017Zm3.63659 -3.4055 1.31333 -2.33482L8.36377 8.6555H5.59118Z" clip-rule="evenodd" stroke-width="1"></path>
  </g>
</svg>

<svg xmlns="http://www.w3.org/2000/svg" fill="none" viewBox="0 0 14 14"><g id="google-drive"><path id="Subtract" fill="#37d7ff" fill-rule="evenodd" d="m.11 9.11 2.48 3.968h8.929l2.48-3.968-4.464-7.937h-4.96L.11 9.11Zm5.481-.455 1.314-2.334 1.459 2.334H5.59Z" clip-rule="evenodd"></path><path id="Intersect" fill="#3e3e3e" fill-rule="evenodd" d="m1.955 12.061 1.678-2.985a.748.748 0 0 1 .043-.075l2.323-4.13-1.845-2.95.42-.748h.882L7.47 4.396c.027.035.05.073.07.112l2.593 4.147h3.61L14 9.11l-.654 1.046H4.747l-1.643 2.922H2.59l-.635-1.017ZM5.59 8.656 6.905 6.32l1.459 2.335H5.59Z" clip-rule="evenodd"></path></g></svg>
